src/actions/16/vcs-stash.svg

<svg id="svg11" version="1.1" viewBox="0 0 16 16" xmlns="http://www.w3.org/2000/svg">
    <style id="current-color-scheme" type="text/css">.ColorScheme-Text {
            color:#363636;
        }
        .ColorScheme-Highlight {
            color:#a0b6cb;
        }</style>
    <path id="path3" class="ColorScheme-Text" d="m2 8v6h5v-6h-1v3h-3v-3zm1 4h3v1h-3z" fill="currentColor"/>
    <path id="path5" class="ColorScheme-Highlight" d="m10 13h3v1h-3z" fill="currentColor"/>
    <path id="path7" d="m2.5 4.7929688-0.7070312 0.7070312 2.7070312 2.7070312 2.7070312-2.7070312-0.7070312-0.7070312-2 2-2-2z" class="ColorScheme-Text" fill="currentColor"/>
    <path id="path9" class="ColorScheme-Text" d="m5.9511719 2a2 2 0 0 0-1.9511719 2v3h1v-3a1 1 0 0 1 1-1h4a1 1 0 0 1 1 1v8h1v-8a2 2 0 0 0-1.951172-2 2 2 0 0 0-0.048828 0h-4a2 2 0 0 0-0.0488281 0z" fill="currentColor"/>
</svg>

<svg xmlns="http://www.w3.org/2000/svg" id="svg11" version="1.1" viewBox="0 0 16 16">
    <style id="current-color-scheme" type="text/css">
        .ColorScheme-Text{color:#050505;opacity:.7}
    </style>
    <path id="path3" fill="currentColor" d="M2 8v6h5V8H6v3H3V8zm1 4h3v1H3z" class="ColorScheme-Text"/>
    <path id="path5" fill="currentColor" d="M10 13h3v1h-3z" style="color:#a0b6cb"/>
    <path id="path7" fill="currentColor" d="m2.5 4.793-.707.707L4.5 8.207 7.207 5.5 6.5 4.793l-2 2-2-2z" class="ColorScheme-Text"/>
    <path id="path9" fill="currentColor" d="M5.951 2A2 2 0 0 0 4 4v3h1V4a1 1 0 0 1 1-1h4a1 1 0 0 1 1 1v8h1V4a2 2 0 0 0-1.951-2A2 2 0 0 0 10 2H6a2 2 0 0 0-.049 0z" class="ColorScheme-Text"/>
</svg>
